X:0461
T:Malbrouke.
N:For He's a Jolly Good Fellow
N:see Paul Nettl, "National Anthems", for the history of this tune
M:6/8
L:1/8
Q:3/8=120
I: :: ::
Z:Jack Campin * www.campin.me.uk * 2009
K:G
G|B2B B2A|c3 B>cB|A2A A>GA|({G/A/}B3) G2
A|B2B BAB|c3 B2d |B2G A>GA|       G3- G2::
d|d2B e2e|d3-d2d |d2B e2e |       d3- d2
G|B2B BAB|c3 B>cB|A2A A>GA|       B3  G2
G|B2B B2A|c3 B2d |B2G A>GA|       G3  G2:|
<end>
<start>
